svg/unreal.svg

<svg viewBox="0 0 20 20" xmlns="http://www.w3.org/2000/svg">
<rect width="100%" height="100%" fill="black"/>
<path fill-rule="evenodd" clip-rule="evenodd" d="M2 10C2 5.5815 5.5815 2 10 2C14.4185 2 18 5.5815 18 10C18 14.4185 14.4185 18 10 18C5.5815 18 2 14.4185 2 10ZM11.2615 13.5645L12.0465 14.4475C14.0025 13.524 14.616 11.817 14.7545 11.152C14.039 11.8845 13.248 12.627 12.7155 12.113C12.7155 12.113 12.6865 9.3705 12.6865 8.2455C12.6865 6.7325 14.1205 5.6055 14.1205 5.6055C13.332 5.746 12.3845 6.027 11.3795 7.0135C11.2887 7.10352 11.2026 7.19815 11.1215 7.297C10.6905 6.967 10.132 7.0665 10.132 7.0665C10.434 7.232 10.7355 7.715 10.7355 8.1145V12.042C10.7355 12.042 10.0775 12.6205 9.5705 12.6205C9.45615 12.6216 9.34322 12.5952 9.24117 12.5436C9.13911 12.492 9.05093 12.4167 8.984 12.324C8.94386 12.2714 8.91059 12.214 8.885 12.153V7.3C8.735 7.424 8.2285 7.526 8.2285 6.685C8.2285 6.1625 8.6055 5.54 9.2755 5.158C8.35513 5.29834 7.49316 5.69595 6.789 6.305C6.2541 6.76738 5.82629 7.34068 5.53531 7.98507C5.24433 8.62946 5.09715 9.32949 5.104 10.0365C5.104 10.0365 5.5945 8.505 6.208 8.364C6.29741 8.3404 6.3911 8.33804 6.48159 8.3571C6.57208 8.37616 6.65685 8.41612 6.72914 8.47379C6.80143 8.53146 6.85923 8.60523 6.89793 8.68922C6.93662 8.77321 6.95514 8.86508 6.952 8.9575V12.554C6.952 12.9185 6.717 12.998 6.5 12.994C6.35278 12.9838 6.20728 12.9562 6.0665 12.912C6.51464 13.5188 7.09708 14.0138 7.76827 14.3581C8.43945 14.7025 9.1812 14.8869 9.9355 14.897L11.2615 13.5645Z" fill="white"/>
</svg>

<svg xmlns="http://www.w3.org/2000/svg" viewBox="0 0 20 20">
  <rect width="100%" height="100%"/>
  <path fill="#fff" fill-rule="evenodd" d="M2 10a8 8 0 1 1 16 0 8 8 0 0 1-16 0Zm9.26 3.56.79.89a4.87 4.87 0 0 0 2.7-3.3c-.71.73-1.5 1.48-2.03.96l-.03-3.86c0-1.52 1.43-2.64 1.43-2.64a4.87 4.87 0 0 0-3 1.69c-.43-.33-.99-.23-.99-.23.3.16.6.64.6 1.04v3.93s-.65.58-1.16.58a.71.71 0 0 1-.59-.3.78.78 0 0 1-.1-.17V7.3c-.15.12-.65.23-.65-.62 0-.52.38-1.14 1.05-1.52a4.94 4.94 0 0 0-4.18 4.88s.5-1.53 1.1-1.68a.6.6 0 0 1 .75.6v3.6c0 .36-.23.44-.45.43-.15 0-.3-.03-.43-.08a4.9 4.9 0 0 0 3.87 1.99l1.32-1.34Z" clip-rule="evenodd"/>
</svg>
